!!!COM: Mozart
!!!OTL: Zehn Variationen in G, uber die Ariette 'Unser dummer Pobel meint' aus dem Singspiel 'Die Pilgrime von Mekka'
!!!Variation: Variation 8 c2
**function	**harm	**kern	**kern
*	*	*clefF4	*clefG2
*	*	*k[f#]	*k[f#]
*M2/2	*M2/2	*M2/2	*M2/2
*G:	*G:	*G:	*G:
=149	=149	=149	=149
1T	1I	4GG 4G	16r
.	.	.	16BLL
.	.	.	16g
.	.	.	16BJJ
.	.	4gg	16r
.	.	.	16BLL
.	.	.	16g
.	.	.	16BJJ
.	.	4FF# 4F#	16r
.	.	.	16BLL
.	.	.	16g
.	.	.	16BJJ
.	.	4ff#	16r
.	.	.	16BLL
.	.	.	16g
.	.	.	16BJJ
=150	=150	=150	=150
2T	2V7d/IV	4FF 4F	16r
.	.	.	16BLL
.	.	.	16g
.	.	.	16BJJ
.	.	4ff	16r
.	.	.	16BLL
.	.	.	16g
.	.	.	16BJJ
2T	2IVb	4EE 4E	16r
.	.	.	16cLL
.	.	.	16g
.	.	.	16cJJ
.	.	4ee	16r
.	.	.	16cLL
.	.	.	16g
.	.	.	16cJJ
=151	=151	=151	=151
2P	2Gn	4EE- 4E-	16r
.	.	.	16c#LL
.	.	.	16g
.	.	.	16c#JJ
.	.	4ee-	16r
.	.	.	16c#LL
.	.	.	16g
.	.	.	16c#JJ
2P	2Ic	4DD 4D	16r
.	.	.	16dLL
.	.	.	16g
.	.	.	16dJJ
.	.	4dd	16r
.	.	.	16dLL
.	.	.	16g
.	.	.	16dJJ
=152	=152	=152	=152
1P	1viioD7/V	[1CC# [1C#	16r
.	.	.	16eLL
.	.	.	16g
.	.	.	16eJJ
.	.	.	16b-LL
.	.	.	16g
.	.	.	16cc#
.	.	.	16b-JJ
.	.	.	16eeLL
.	.	.	16cc#
.	.	.	16gg
.	.	.	16eeJJ
.	.	.	16bb-LL
.	.	.	16gg
.	.	.	16ccc#
.	.	.	16bb-JJ
=153	=153	=153	=153
1P	1viioD7/V	1CC#] 1C#]	16eeeLL
.	.	.	16ccc#
.	.	.	16bb-
.	.	.	16ccc#JJ
.	.	.	16ggLL
.	.	.	16bb-
.	.	.	16ee
.	.	.	16ggJJ
.	.	.	16cc#LL
.	.	.	16ee
.	.	.	16b-
.	.	.	16cc#JJ
.	.	.	16gLL
.	.	.	16b-
.	.	.	16e
.	.	.	16gJJ
=154	=154	=154	=154
4D	4V7d	4Cn 4cn	16f#LL
.	.	.	16d
.	.	.	16c#
.	.	.	16dJJ
4D	4Ib	4BB 4B	16gLL
.	.	.	16d
.	.	.	16c#
.	.	.	16dJJ
4D	4Vc	4AA 4A	16f#LL 16a
.	.	.	16d
.	.	.	16c#
.	.	.	16dJJ
4D	4I	4GG 4G	16gLL 16b
.	.	.	16d
.	.	.	16c#
.	.	.	16dJJ
=155	=155	=155	=155
1D	1V7b	4FF# 4F#	16ccLL
.	.	.	16a
.	.	.	16b
.	.	.	16ccJJ
.	.	4r	16ddLL
.	.	.	16ee
.	.	.	16ff#
.	.	.	16ggJJ
.	.	2r	16aaLL
.	.	.	16gg
.	.	.	16ff#
.	.	.	16ggJJ
.	.	.	16aaLL
.	.	.	16bb
.	.	.	16aa
.	.	.	16bbJJ
=156	=156	=156	=156
1D	1V7b	2r	16cccLL
.	.	.	16ddd
.	.	.	16eee
.	.	.	16dddJJ
.	.	.	16cccLL
.	.	.	16bb
.	.	.	16aa
.	.	.	16gg#JJ
*	*	*clefG2	*
.	.	[4cc	16aaLL
.	.	.	16bb
.	.	.	16ccc
.	.	.	16bbJJ
.	.	16ccLL]	16aaLL
.	.	16b	16gg
.	.	16a	16ff#
.	.	16gJJ	16eeJJ
=157	=157	=157	=157
1D	1V7b	[4a	16ff#LL
.	.	.	16gg
.	.	.	16aa
.	.	.	16ggJJ
.	.	16aLL]	16ff#LL
.	.	16g	16ee
.	.	16f#	16dd
.	.	16eJJ	16cc#JJ
.	.	8f#L	16ddLL
.	.	.	16dd#
.	.	16gL	16ee
.	.	16f#JJ	16ddJJ
.	.	16eLL	16ccLL
.	.	16d	16b
.	.	16c	16a
.	.	16BJJ	16g#JJ
*	*	*clefF4	*
=158	=158	=158	=158
1D	1V7b	[4c	16aLL
.	.	.	16b
.	.	.	16cc
.	.	.	16bJJ
.	.	16cLL]	16aLL
.	.	16B	16gn
.	.	16A	16f#
.	.	16GJJ	16eJJ
.	.	[4A	16f#LL
.	.	.	16g
.	.	.	16a
.	.	.	16gJJ
.	.	16ALL]	16f#LL
.	.	16G	16e
.	.	16F#	16d
.	.	16EJJ	16c#JJ
=159	=159	=159	=159
1D	1V7b	8F#L	16dLL
.	.	.	16d#
.	.	16GL	16e
.	.	16F#JJ	16dJJ
.	.	16ELL	16cnLL
*	*	*	*clefF4
.	.	16D	16B
.	.	16C	16A
.	.	16BBJJ	16G#JJ
.	.	[4C	16ALL
.	.	.	16B
.	.	.	16c
.	.	.	16BJJ
.	.	16CLL]	16ALL
.	.	16BB	16G
.	.	16AA	16F#
.	.	16GGJJ	16EJJ
=160	=160	=160	=160
1D	1V7b	[4AA	16F#LL
.	.	.	16G
.	.	.	16A
.	.	.	16GJJ
.	.	16AALL]	16F#LL
.	.	16GG	16E
.	.	16FF#	16D
.	.	16EEJJ	16C#JJ
.	.	8FF#L	16DLL
.	.	.	16D#
.	.	16GGL	16E
.	.	16FF#JJ	16DJJ
.	.	16EELL	16CLL
.	.	16DD	16BB
.	.	16CC	16AA
.	.	16BBBJJ	16GG#JJ
=161	=161	=161	=161
1D	1V7b	4.CC	16AALL
.	.	.	16BB
.	.	.	16C
.	.	.	16BBJJ
.	.	.	16AALL
.	.	.	16BB
.	.	8BBB	16GGn
.	.	.	16AAJJ
.	.	4.AAA	16FF#LL
.	.	.	16GG
.	.	.	16AA
.	.	.	16GGJJ
.	.	.	16FF#LL
.	.	.	16GG
.	.	8GGG	16EE
.	.	.	16FF#JJ
=162	=162	=162	=162
1D	1V7b	2FFF#;	[2DD;
.	.	.	q16.DDLL]
.	.	.	q64EELL
.	.	.	q64FF#JJJ
.	.	.	q64GGLLL
.	.	.	q64AA
.	.	.	q64BB
.	.	.	q64C#
.	.	.	q64D
.	.	.	q64E
.	.	.	q64F#
.	.	.	q64GJJJJ
.	.	.	q64ALLLL
.	.	.	q64B
*	*	*	*clefG2
.	.	.	q64c#
.	.	.	q64d
.	.	.	q64e
.	.	.	q64f#
.	.	.	q64g
.	.	.	q64aJJJ
.	.	.	q64bLLL
.	.	.	q64cc#
.	.	.	q64dd
.	.	.	q64ee
.	.	.	q64ff#
.	.	.	q64gg
.	.	.	q64aa
.	.	.	q64bbJJJJ
.	.	.	(q8cccn'L
.	.	.	q8aa'
.	.	.	q8ff#'
.	.	.	q8dd'J)
.	.	.	q8cc#;
.	.	.	q8.cc;
.	.	.	(q32ddLLL
.	.	.	q32ccJJ
.	.	.	(q32bLL)
.	.	.	q32cc
.	.	.	q32b
.	.	.	q32ccJJ
.	.	.	q32bLL
.	.	.	q32cc
.	.	.	q32b
.	.	.	q32ccJJ
.	.	.	q32bLL
.	.	.	q32cc
.	.	.	q32b
.	.	.	q32ccJJJ)
.	.	2r	(8ddL
.	.	.	8cc
.	.	.	8b
.	.	.	8aJ)
*-	*-	*-	*-
